X:2367
T:Eunyssagh Vona 
C:Traditional
O:Isle of Man
N:See KV 154,161,246,277.
Z:Kiaull Vannin 367 
M:2/4 
L:1/8 
Q:200 
K:G 
D2|G2 GA|B2 AG|A2 AB|c2 BA|G2 GB|d2 BG|FA D2|FA D2| 
G2 GA|B2 AG|A2 AB|c2 BA|Bd BG|Ac AF|G2 G2|G2 Bc| 
d2 dc|Bc d2|c2 cB|AB c2|B2 BA|GA B2|AG FE|DE FD| 
B2 BA|GA B2|c2 cB|AB c2|BA GB|AG FA|G4|G2|| 

